Obsidian-SemiLight/actions/16s/debug-execute-to-cursor.svg

<svg viewBox="0 0 16 16" xmlns="http://www.w3.org/2000/svg"><path d="m9 2v1h2v10h-2v1h5v-1h-2v-10h2v-1zm-7 3v6h1v-2h3v2l3-3-3-3v2h-3v-2z" fill="#4d4d4d"/></svg>

<svg xmlns="http://www.w3.org/2000/svg" viewBox="0 0 16 16">
  <defs id="defs3051">
    <style type="text/css" id="current-color-scheme">
      .ColorScheme-Text {
        color:#4d4d4d;
      }
      </style>
  </defs>
 <path style="fill:currentColor;fill-opacity:1;stroke:none" 
       d="M 9 2 L 9 3 L 11 3 L 11 13 L 9 13 L 9 14 L 14 14 L 14 13 L 12 13 L 12 3 L 14 3 L 14 2 L 9 2 z M 2 5 L 2 11 L 3 11 L 3 9 L 6 9 L 6 11 L 9 8 L 6 5 L 6 7 L 3 7 L 3 5 L 2 5 z "
     class="ColorScheme-Text"
     />
</svg>
